widgets/Query/css/images/expand-list-light-hover.svg

<svg width="16" height="17" xmlns="http://www.w3.org/2000/svg"><path d="M12 14.139V6h1v8.139L15.183 12l.817.8-3.5 3.429L9 12.8l.817-.8L12 14.139zM0 0h16v4H0V0zm0 6h8v2H0V6zm0 4h8v2H0v-2zm0 4h8v2H0v-2z" fill-rule="evenodd"/></svg>

<?xml version="1.0" encoding="UTF-8"?>
<svg width="16px" height="17px" viewBox="0 0 16 17" version="1.1" xmlns="http://www.w3.org/2000/svg" xmlns:xlink="http://www.w3.org/1999/xlink">
    <!-- Generator: Sketch 52.2 (67145) - http://www.bohemiancoding.com/sketch -->
    <title>expandAll</title>
    <desc>Created with Sketch.</desc>
    <g id="Query" stroke="none" stroke-width="1" fill="none" fill-rule="evenodd">
        <g id="icons" transform="translate(-56.000000, -159.000000)" fill="#000000">
            <g id="expandAll" transform="translate(56.000000, 159.000000)">
                <path d="M12,14.1387755 L12,6 L13,6 L13,14.1387755 L15.1833333,12 L16,12.8 L12.5,16.2285714 L9,12.8 L9.81666667,12 L12,14.1387755 Z M0,0 L16,0 L16,4 L0,4 L0,0 Z M0,6 L8,6 L8,8 L0,8 L0,6 Z M0,10 L8,10 L8,12 L0,12 L0,10 Z M0,14 L8,14 L8,16 L0,16 L0,14 Z" id="Combined-Shape"></path>
            </g>
        </g>
    </g>
</svg>
